fonts/LOGO/logo.svg

<svg xmlns="http://www.w3.org/2000/svg"><defs><font id="fonteditor" horiz-adv-x="1024"><font-face font-family="kittySYËs+TªN-efzýbKg:[WOS" font-weight="400" units-per-em="975" panose-1="2 0 5 0 0 0 0 0 0 0" ascent="996" descent="-324" x-height="0" bbox="-15 -167 1002 933" underline-thickness="71" underline-position="-103" unicode-range="U+0061-6751"/><glyph glyph-name="a" unicode="a" d="M470 289q0-131-38-273-19-72-57-72t-38 44q0 10 1 15-49-26-101-26-92 0-143.5 51.5T42 174q0 95 55.5 150T246 379q80 0 135-53-9 188-139 188-29 0-62-17.5T137 479q-17 0-29.5 13.5T95 523q0 28 41 53 44 26 106 26 228 0 228-313zm-97-112q0 121-114 121-124 0-124-120 0-121 124-121 53 0 83.5 31.5T373 177z"/><glyph glyph-name="c" unicode="c" d="M564 194q0-49-101-127-71-54-186-54-114 0-180 75-67 77-67 210 0 173 77 269.5T319 664q100 0 164-45 60-42 60-100 0-48-45-48-20 0-30 15-9 21-26 52-34 38-123 38-93 0-143.5-70T125 306q0-206 164-206 94 0 161 68 1 0 30 42 17 26 39 26 17 0 31-13t14-29z"/><glyph glyph-name="d" unicode="d" d="M565 720q0 3-6-71-6-86-11-183-5-140-5-298 0-33 .5-67t.5-36q0-71-45-71-49 0-49 80 0 19 1 29-90-88-208-88-99 0-157 64T28 255q0 152 84 246t220 94q64 0 131-29 4 131 9 158 11 48 53 48 40 0 40-52zM458 473q-62 39-125 39-97 0-153-67t-56-182q0-78 37.5-121.5T266 98q84 0 128 55l24 38q14 20 34 24 0 133 6 258z"/><glyph glyph-name="f" unicode="f" d="M527 627q0-17-13-30.5T485 583q-4 0-52 22t-100 22q-80 0-113-66-15-32-18-94l-4-134q130-10 171-21 55-14 55-47 0-18-9.5-30.5T392 222q-8 0-66 10-67 12-129 17-7-215-15-265-13-85-55-85-46 0-46 52l10 98q10 101 12 204-58 1-76 8-24 9-24 38 0 41 44 41h2l55-2q2 64 4 127 2 59 12 90 49 160 208 160 89 0 146-29 53-25 53-59z"/><glyph glyph-name="g" unicode="g" d="M521 633q0-37-42-37-6 0-24 1-24 3-40 4 58-64 58-151 0-84-60-138.5T258 257q-22 0-69 4-40-30-64-72 93 11 123 11 195 0 195-135 0-81-73.5-127.5T164-109q-83 0-133 32-46 30-46 75 0 16 14 28t32 12q13 0 25-11Q68 14 80 2q23-23 89-23 83 0 130 21 45 21 45 59 0 53-125 53-29 0-77.5-5.5T74 101q-46 0-46 33 0 45 89 154-73 51-73 149 0 90 64.5 154.5T267 656q20 0 46-5 15 24 101 24 107 0 107-42zM382 459q0 53-31.5 85T267 576q-57 0-93-38.5T138 438q0-100 119-100 60 0 92.5 32t32.5 89z"/><glyph glyph-name="n" unicode="n" d="M525 324q0-114-37-225-23-70-57-70-18 0-31 11t-13 27q0 4 23 87t23 164q0 185-116 185-66 0-108-49-43-50-43-133 0-46 13-129t13-118q0-82-47-82-24 0-33 11-7 8-12 33 0 30-11 171-20 197-20 280 0 144 56 144 18 0 31-11.5t13-25.5q0-11-6-40t-6-49v-11q71 96 171 96 93 0 145-69t52-197z"/><glyph glyph-name="u" unicode="u" d="M570 47q0-23-13.5-39T523-8q-38 0-64 116Q379-2 264-2 74-2 74 301q0 156 21 271 12 72 60 72 17 0 30-13t13-30q0-15-14-118t-14-192q0-203 113-203 73 0 115.5 56T441 303v28q0 160 8 205 11 65 53 65 40 0 40-56 0-10-4-72.5T534 359q0-121 18-224t18-88z"/><glyph glyph-name="uni306E" unicode="の" d="M940 306q0-100-46-196-36-75-113-172L690 8q134 157 134 297 0 239-281 271 96-159 96-293 0-111-72-180-72-70-184-70-125 0-207 74-85 77-85 200 0 183 136 287 123 96 311 96 186 0 293-102 109-101 109-282zm-424-15q0 161-105 276-88-27-147-97-59-72-59-157 0-76 53-122 50-44 125-44 61 0 98 43 35 40 35 101z"/><glyph glyph-name="uni53D1" unicode="发" d="M830 308v-13q0-41-30.5-97.5T714 79q113-33 241-40l-11-98q-63 1-135 18T642 5l-43-40q-69-65-100-65-45 0-45 49 0 26 23.5 49T531 45q-94 39-150 90-16 17-19 36 4 36 45 41 27-1 86-32l54-30q29-17 64-33 71 69 110 138 9 14 9 26.5T719 304q-24 15-52.5 16t-66.5 1q-71 0-267-64L250 69q-36-85-60-148L92-28l228 508q-114 7-165 38.5T104 611v9q0 94 42 138 18 16 47 18 40-3 40-58 0-5-3-14l-6-20q-8-23-9-46v-5q0-20 7-30 20-30 141-30l97 203q15 26 28 35t35 11q40-3 44-44 0-18-6-33l-81-170q209 19 414 60v-91q-214-49-458-63l-53-115q126 37 260 40 120 0 174-62 13-18 13-36zM695 913q34 20 70-7l11-12 4 4 2 1q33 20 63-1l14-16q16-27 2-58 17-11 24-22 15-25-2-56-8-12-15-16l-8-5q-16-9-47-5-9-30-31-42-32-19-64 6l-9 12q-7 11-10 31-37-3-55 26-20 34 7 68l12 9 12 8q-16 25 3 58 5 7 17 17zm9-71v-2l18-23q-29 0-43-9l-2-2-1 1q-19-20-10-37l5-6q12-21 56 1l6 3 1-1q-13-37-1-56l1-2q10-18 32-8l3 2q10 6 18 26 4 24 1 34l2 1q27-20 52-16l10 6q17 10 8 34-9 16-47 24l-1 1q29 17 28 43l-5 12q-17 21-37 9-9-6-28-31l-1 1-10 22q-15 25-35 24l-13-4q-18-10-14-32l7-15zm50-18q16 9 31-8l1-1q10-23-7-33l-3-2q-21-8-33 11-9 16 11 33z"/><glyph glyph-name="uni5927" unicode="大" d="M249 81Q207-3 179-66L82-18l280 525q-24 0-51-2l-139-10q-44-3-102-4v92q112 14 346 22l58 107q46 80 68 93 13 8 31 10 41-3 45-43-1-16-7-32v2l-76-134 333 6q66-2 74-44-5-43-47-48l-413-9-85-152q1 0 2-1l-18-35-35-57-97-187zm231 227l6 5q33 25 80 24 7 42 48 73 57 44 129 13 26-10 70-55 30-13 45-33 13-17 24-67l4-5q28-16 65-55 51-67 19-164-27-58-76-96l-19-14q-131-101-242-41-33 22-55 49-31 40-35 97-52 42-76 73-69 90-8 176l21 20zm36-162q29-38 84-74 0-56 28-92l9-12q44-58 132-27 36 15 73 43l25 19q40 30 56 90 3 48-20 79l-3 5q-20 25-55 37l-10 18-2 1-19 16q12 31-2 48-13 17-38 14l-5 10-13 18q-33 42-76 35-15 0-35-16-44-34-2-116l2-4-3-3q-71 66-124 26-33-25-25-67 2-20 23-48zm160 147l5 2q22 18 50-13l9-17q5 18 17 27 24 18 43 2l5-7q10-12-5-46 18-4 29-18 15-19-6-37l-6-4q-14-11-46 0 4-32-14-45-19-14-43 11-7 9-9 26-40-19-56 1l-3 4q-14 18 14 45 13 9 24 9l3 1-10 10q-17 35-1 49zm45-81l1-2q13-12 26-2l6 5 2 16-6 8q-8 10-24 4-15-15-5-29zM696 41q9 2 15 0l8-10q6-10 3-16l-9-5q-5-5-20 9-5 16 3 22zm121 89q9 6 21-8l1-2q8-14-1-21-9-8-20 5l-3 4q-11 12 2 22zm-49-75l15 12 14-3 2-3q4-6 2-18l2-3 9 4 9 11 3 3 5-1 3-3q4-5-11-24l-16-6-10-14q-22-10-27-5l-1 2 1 8 17 8 3 2v8q-17 3-21 8-2 7 1 14z"/><glyph glyph-name="uni59D1" unicode="姑" d="M950 600q0-42-48-46H739q-19-88-32-167 53-2 99-11 111-28 111-202v-49q0-96-53-141-65-49-188-49h-42Q456-65 420 72q-10 40-10 84v13q1 112 30 175 20 47 59 47 22 0 33-28 15 4 38 9l37 7 33 174h-89q-39 0-63-2-14-16-42-16h-26q-41-104-82-249L282 88q61-38 123-65l-23-35q-10-15-22-35-50 24-97 55-5-18-11-42l-9-41-78 24 29 107Q99 116 72 169q-11 22-11 48 0 66 84 315-70-2-79-4v72l49 2q27 0 56 1l57 161q15 38 51 43 38-2 39-40-2-8-10-16l-53-147h24l29 2h54q19 60 57 60 36-4 38-38 0-8-6-21l39-15v51q50 2 170 3 17 84 36 139l-1-1q24 27 49 27 42 0 45-46-9-60-31-118h110q39 0 60.5-12.5T950 600zm-722-73q-82-239-82-292.5t69-99.5l66 231q31 105 53 169h-50q-28 0-47-1l-9-7zm288-253q-15-55-15-99.5t9-80.5q17-59 82-72 44-7 81.5-7t68.5 3q59 7 72 64 9 31 11 86 0 110-48 127-61 10-131 11-71-6-130-32z"/><glyph glyph-name="uni5C0F" unicode="小" d="M564 598q25-168 25-287.5T576.5 119Q564 47 541.5 5.5t-55-58Q454-69 412-69q-95 4-157 50l7 43 8 42q57-40 110-40 68 5 88 62 21 51 21 206v28q-8 218-57 415-4 14-4 26 0 43 54 52 37-1 51-41 10-38 17-84l14-92zm85-83q4 42 42 48 48 0 111-105 29-49 62-118l70-151-97-63q-98 239-173 352-15 18-15 37zM27 388q22 67 134 61 8 24 42 42-5 20 4 65 17 52 69 51l21-4q54-18 87-82 12-30 3-60-16-46-86-59-14-42-60-55 5-22-2-55-19-58-70-61-20 1-33 5l-6 2Q56 263 25 348q-3 27 2 40zm105-126l12-4q54-12 66 26l5 11q7 20 4 54l-18 6q-9-26-47-20-30 10-23 50 5 15 26 22l-1 17q-90 8-107-42l-1-4q-12-38 46-93 21-17 38-23zm26 89l5-2q18-2 23 12l1 2q-12 6-24 28l1 1-2 1q-13-5-16-13-4-24 12-29zm55 15q36-12 69 28l3 10q9 57-34 71l-1 2-1 1q-59 8-73-35l-2-5q-15-45 39-72zm13 129q11 1 22-2l3-2q15 27 38 19l6-2q24-8 19-41-2-8-14-20 2-19 6-20 49 12 57 37l2 8q17 48-56 99l-20 10q-44 15-59-31-8-24-4-55zm40-10q11-4 24-21l1-1q4-1 9 9 4 15-14 24-16 1-20-9v-2z"/><glyph glyph-name="uni5C4B" unicode="屋" d="M199 556q-34-326-38-638H70q0 303 52 837 4 50 50 56 30-3 42-35 240 38 502 39h9q88 0 134-37 40-35 40-112t-45-104q-45-27-112-27h-15q-320 0-528 21zm614 116v7q0 34-19 47-24 12-66 12h-12q-239-6-505-40 0-21-1-33l-4-28q226-25 475-25h75q57 0 57 60zm45-332q-10-112-234-114 9-21 9-47h159q74 0 74-47-3-34-42-38H628l-2-85 258 2q54 0 58-35-3-33-40-37l-334-3-196-4-138-5V0l291 8v42l1 43-225-3v85q67 2 227 3 3 27 13 48h-15q-112 0-182 29-55 26-55 76 0 23 15 65l-58-2v74q170 14 634 18 56-2 57-33-2-30-29-34.5t-75-4.5q23-47 25-74zm-381-42q41-3 115-3t114 12q60 18 60 71l-17 35-275-7-80-4q-13-22-13-40t6-32q12-28 90-32z"/><glyph glyph-name="uni6751" unicode="村" d="M189 503q-100-4-128-9v90q54 9 125 12l-5 172v3q0 19 12 29.5t33.5 10.5q21.5 0 31-5.5t13.5-27q4-21.5 5-64.5t4-117l51 2q82 0 82-51 0-38-45-42h-84l3-122q12 6 22 6 18 0 113-87-14-23-25-43l-24-43-84 87q8-274 8-386h-95l-6 360-95-82-56 73 73 67q38 36 75 57l-4 110zm261 113q58 8 300 12l-4 132q0 51 53 51 19 0 27.5-18.5T839 747q4-27 4.5-58.5T846 630h26q80 0 82-48-3-38-46-43h-57q11-253 11-455-4-169-151-174-79 0-142 54l-4 80Q613 6 686 3q80 0 80 125l-12 410q-245-4-304-14v92zm23-241q5 39 42 43 37 0 73-38 52-55 99-133l-77-60q-21 30-42 55l-37 44q-26 28-42 49t-16 40z"/></font></defs></svg>

<?xml version="1.0" standalone="no"?><!DOCTYPE svg PUBLIC "-//W3C//DTD SVG 1.1//EN" "http://www.w3.org/Graphics/SVG/1.1/DTD/svg11.dtd" ><svg xmlns="http://www.w3.org/2000/svg"><metadata></metadata><defs><font id="fonteditor" horiz-adv-x="1024"><font-face font-family="kittySYËs+TªN-efzýbKg:[WOS" font-weight="400" font-stretch="normal" units-per-em="975" panose-1="2 0 5 0 0 0 0 0 0 0" ascent="996" descent="-324" x-height="0" bbox="-15 -167 1002 933" underline-thickness="71" underline-position="-103" unicode-range="U+0061-6751" /><missing-glyph horiz-adv-x="975"  /><glyph glyph-name="a" unicode="a" d="M470 289 Q470 158 432 16 Q413 -56 375 -56 Q337 -56 337 -12 Q337 -2 338 3 Q289 -23 237 -23 Q145 -23 93.5 28.5 Q42 80 42 174 Q42 269 97.5 324 Q153 379 246 379 Q326 379 381 326 Q372 514 242 514 Q213 514 180 496.5 Q147 479 137 479 Q120 479 107.5 492.5 Q95 506 95 523 Q95 551 136 576 Q180 602 242 602 Q470 602 470 289 ZM373 177 Q373 298 259 298 Q135 298 135 178 Q135 57 259 57 Q312 57 342.5 88.5 Q373 120 373 177 Z" /><glyph glyph-name="c" unicode="c" d="M564 194 Q564 145 463 67 Q392 13 277 13 Q163 13 97 88 Q30 165 30 298 Q30 471 107 567.5 Q184 664 319 664 Q419 664 483 619 Q543 577 543 519 Q543 471 498 471 Q478 471 468 486 Q459 507 442 538 Q408 576 319 576 Q226 576 175.5 506 Q125 436 125 306 Q125 100 289 100 Q383 100 450 168 Q451 168 480 210 Q497 236 519 236 Q536 236 550 223 Q564 210 564 194 Z" /><glyph glyph-name="d" unicode="d" d="M565 720 Q565 723 559 649 Q553 563 548 466 Q543 326 543 168 Q543 135 543.5 101 Q544 67 544 65 Q544 -6 499 -6 Q450 -6 450 74 Q450 93 451 103 Q361 15 243 15 Q144 15 86 79 Q28 143 28 255 Q28 407 112 501 Q196 595 332 595 Q396 595 463 566 Q467 697 472 724 Q483 772 525 772 Q565 772 565 720 ZM458 473 Q396 512 333 512 Q236 512 180 445 Q124 378 124 263 Q124 185 161.5 141.5 Q199 98 266 98 Q350 98 394 153 Q406 172 418 191 Q432 211 452 215 Q452 348 458 473 Z" /><glyph glyph-name="f" unicode="f" d="M527 627 Q527 610 514 596.5 Q501 583 485 583 Q481 583 433 605 Q385 627 333 627 Q253 627 220 561 Q205 529 202 467 Q200 400 198 333 Q328 323 369 312 Q424 298 424 265 Q424 247 414.5 234.5 Q405 222 392 222 Q384 222 326 232 Q259 244 197 249 Q190 34 182 -16 Q169 -101 127 -101 Q81 -101 81 -49 Q81 -49 91 49 Q101 150 103 253 Q45 254 27 261 Q3 270 3 299 Q3 340 47 340 L49 340 L104 338 Q106 402 108 465 Q110 524 120 555 Q169 715 328 715 Q417 715 474 686 Q527 661 527 627 Z" /><glyph glyph-name="g" unicode="g" d="M521 633 Q521 596 479 596 Q473 596 455 597 Q431 600 415 601 Q473 537 473 450 Q473 366 413 311.5 Q353 257 258 257 Q236 257 189 261 Q149 231 125 189 Q218 200 248 200 Q443 200 443 65 Q443 -16 369.5 -62.5 Q296 -109 164 -109 Q81 -109 31 -77 Q-15 -47 -15 -2 Q-15 14 -1 26 Q13 38 31 38 Q44 38 56 27 Q68 14 80 2 Q103 -21 169 -21 Q252 -21 299 0 Q344 21 344 59 Q344 112 219 112 Q190 112 141.5 106.5 Q93 101 74 101 Q28 101 28 134 Q28 179 117 288 Q44 339 44 437 Q44 527 108.5 591.5 Q173 656 267 656 Q287 656 313 651 Q328 675 414 675 Q521 675 521 633 ZM382 459 Q382 512 350.5 544 Q319 576 267 576 Q210 576 174 537.5 Q138 499 138 438 Q138 338 257 338 Q317 338 349.5 370 Q382 402 382 459 Z" /><glyph glyph-name="n" unicode="n" d="M525 324 Q525 210 488 99 Q465 29 431 29 Q413 29 400 40 Q387 51 387 67 Q387 71 410 154 Q433 237 433 318 Q433 503 317 503 Q251 503 209 454 Q166 404 166 321 Q166 275 179 192 Q192 109 192 74 Q192 -8 145 -8 Q121 -8 112 3 Q105 11 100 36 Q100 66 89 207 Q69 404 69 487 Q69 631 125 631 Q143 631 156 619.5 Q169 608 169 594 Q169 583 163 554 Q157 525 157 505 L157 494 Q228 590 328 590 Q421 590 473 521 Q525 452 525 324 Z" /><glyph glyph-name="u" unicode="u" d="M570 47 Q570 24 556.5 8 Q543 -8 523 -8 Q485 -8 459 108 Q379 -2 264 -2 Q74 -2 74 301 Q74 457 95 572 Q107 644 155 644 Q172 644 185 631 Q198 618 198 601 Q198 586 184 483 Q170 380 170 291 Q170 88 283 88 Q356 88 398.5 144 Q441 200 441 303 L441 331 Q441 491 449 536 Q460 601 502 601 Q542 601 542 545 Q542 535 538 472.5 Q534 410 534 359 Q534 238 552 135 Q570 32 570 47 Z" /><glyph glyph-name="uni306E" unicode="&#x306e;" d="M940 306 Q940 206 894 110 Q858 35 781 -62 L690 8 Q824 165 824 305 Q824 544 543 576 Q639 417 639 283 Q639 172 567 103 Q495 33 383 33 Q258 33 176 107 Q91 184 91 307 Q91 490 227 594 Q350 690 538 690 Q724 690 831 588 Q940 487 940 306 ZM516 291 Q516 452 411 567 Q323 540 264 470 Q205 398 205 313 Q205 237 258 191 Q308 147 383 147 Q444 147 481 190 Q516 230 516 291 Z" /><glyph glyph-name="uni53D1" unicode="&#x53d1;" d="M830 308 L830 295 Q830 254 799.5 197.5 Q769 141 714 79 Q827 46 955 39 L944 -59 Q881 -58 809 -41 Q737 -24 642 5 L599 -35 Q530 -100 499 -100 Q454 -100 454 -51 Q454 -25 477.5 -2 Q501 21 531 45 Q437 84 381 135 Q365 152 362 171 Q366 207 407 212 Q434 211 493 180 L547 150 Q576 133 611 117 Q682 186 721 255 Q730 269 730 281.5 Q730 294 719 304 Q695 319 666.5 320 Q638 321 600 321 Q529 321 333 257 L250 69 Q214 -16 190 -79 L92 -28 L320 480 Q206 487 155 518.5 Q104 550 104 611 L104 620 Q104 714 146 758 Q164 774 193 776 Q233 773 233 718 Q233 713 230 704 L224 684 Q216 661 215 638 L215 633 Q215 613 222 603 Q242 573 363 573 L460 776 Q475 802 488 811 Q501 820 523 822 Q563 819 567 778 Q567 760 561 745 L480 575 Q689 594 894 635 L894 544 Q680 495 436 481 L383 366 Q509 403 643 406 Q763 406 817 344 Q830 326 830 308 ZM695 913 Q729 933 765 906 L776 894 L780 898 L782 899 Q815 919 845 898 L859 882 Q875 855 861 824 Q878 813 885 802 Q900 777 883 746 Q875 734 868 730 L860 725 Q844 716 813 720 Q804 690 782 678 Q750 659 718 684 L709 696 Q702 707 699 727 Q662 724 644 753 Q624 787 651 821 L663 830 L675 838 Q659 863 678 896 Q683 903 695 913 ZM704 842 L704 840 L722 817 Q693 817 679 808 L677 806 L676 807 Q657 787 666 770 L671 764 Q683 743 727 765 L733 768 L734 767 Q721 730 733 711 L734 709 Q744 691 766 701 L769 703 Q779 709 787 729 Q791 753 788 763 L790 764 Q817 744 842 748 L852 754 Q869 764 860 788 Q851 804 813 812 L812 813 Q841 830 840 856 L835 868 Q818 889 798 877 Q789 871 770 846 L769 847 L759 869 Q744 894 724 893 L711 889 Q693 879 697 857 L704 842 ZM754 824 Q770 833 785 816 L786 815 Q796 792 779 782 L776 780 Q755 772 743 791 Q734 807 754 824 Z" /><glyph glyph-name="uni5927" unicode="&#x5927;" d="M249 81 Q207 -3 179 -66 L82 -18 L362 507 Q338 507 311 505 L172 495 Q128 492 70 491 L70 583 Q182 597 416 605 L474 712 Q520 792 542 805 Q555 813 573 815 Q614 812 618 772 Q617 756 611 740 L611 742 L535 608 L868 614 Q934 612 942 570 Q937 527 895 522 L482 513 L397 361 Q398 361 399 360 L381 325 L346 268 L249 81 ZM480 308 L486 313 Q519 338 566 337 Q573 379 614 410 Q671 454 743 423 Q769 413 813 368 Q843 355 858 335 Q871 318 882 268 L886 263 Q914 247 951 208 Q1002 141 970 44 Q943 -14 894 -52 L875 -66 Q744 -167 633 -107 Q600 -85 578 -58 Q547 -18 543 39 Q491 81 467 112 Q398 202 459 288 L480 308 ZM516 146 Q545 108 600 72 Q600 16 628 -20 L637 -32 Q681 -90 769 -59 Q805 -44 842 -16 L867 3 Q907 33 923 93 Q926 141 903 172 L900 177 Q880 202 845 214 L835 232 L833 233 L814 249 Q826 280 812 297 Q799 314 774 311 L769 321 L756 339 Q723 381 680 374 Q665 374 645 358 Q601 324 643 242 L645 238 L642 235 Q571 301 518 261 Q485 236 493 194 Q495 174 516 146 ZM676 293 L681 295 Q703 313 731 282 L740 265 Q745 283 757 292 Q781 310 800 294 L805 287 Q815 275 800 241 Q818 237 829 223 Q844 204 823 186 L817 182 Q803 171 771 182 Q775 150 757 137 Q738 123 714 148 Q707 157 705 174 Q665 155 649 175 L646 179 Q632 197 660 224 Q673 233 684 233 L687 234 L677 244 Q660 279 676 293 ZM721 212 L722 210 Q735 198 748 208 L754 213 L756 229 L750 237 Q742 247 726 241 Q711 226 721 212 ZM696 41 Q705 43 711 41 L719 31 Q725 21 722 15 L713 10 Q708 5 693 19 Q688 35 696 41 ZM817 130 Q826 136 838 122 L839 120 Q847 106 838 99 Q829 91 818 104 L815 108 Q804 120 817 130 ZM768 55 L783 67 L797 64 L799 61 Q803 55 801 43 L803 40 L812 44 L821 55 L824 58 L829 57 L832 54 Q836 49 821 30 L805 24 L795 10 Q773 0 768 5 L767 7 L768 15 L785 23 L788 25 L788 33 Q771 36 767 41 Q765 48 768 55 Z" /><glyph glyph-name="uni59D1" unicode="&#x59d1;" d="M950 600 Q950 558 902 554 L739 554 Q720 466 707 387 Q760 385 806 376 Q917 348 917 174 L917 125 Q917 29 864 -16 Q799 -65 676 -65 L634 -65 Q456 -65 420 72 Q410 112 410 156 L410 169 Q411 281 440 344 Q460 391 499 391 Q521 391 532 363 Q547 367 570 372 L607 379 L640 553 L551 553 Q512 553 488 551 Q474 535 446 535 L420 535 Q379 431 338 286 L282 88 Q343 50 405 23 L382 -12 Q372 -27 360 -47 Q310 -23 263 8 Q258 -10 252 -34 L243 -75 L165 -51 L194 56 Q99 116 72 169 Q61 191 61 217 Q61 283 145 532 Q75 530 66 528 L66 600 L115 602 Q142 602 171 603 L228 764 Q243 802 279 807 Q317 805 318 767 Q316 759 308 751 L255 604 L279 604 L308 606 L362 606 Q381 666 419 666 Q455 662 457 628 Q457 620 451 607 L490 592 L490 643 Q540 645 660 646 Q677 730 696 785 L695 784 Q719 811 744 811 Q786 811 789 765 Q780 705 758 647 L868 647 Q907 647 928.5 634.5 Q950 622 950 600 ZM228 527 Q146 288 146 234.5 Q146 181 215 135 L281 366 Q312 471 334 535 L284 535 Q256 535 237 534 L228 527 ZM516 274 Q501 219 501 174.5 Q501 130 510 94 Q527 35 592 22 Q636 15 673.5 15 Q711 15 742 18 Q801 25 814 82 Q823 113 825 168 Q825 278 777 295 Q716 305 646 306 Q575 300 516 274 Z" /><glyph glyph-name="uni5C0F" unicode="&#x5c0f;" d="M564 598 Q589 430 589 310.5 Q589 191 576.5 119 Q564 47 541.5 5.5 Q519 -36 486.5 -52.5 Q454 -69 412 -69 Q317 -65 255 -19 L262 24 Q266 45 270 66 Q327 26 380 26 Q448 31 468 88 Q489 139 489 294 L489 322 Q481 540 432 737 Q428 751 428 763 Q428 806 482 815 Q519 814 533 774 Q543 736 550 690 L564 598 ZM649 515 Q653 557 691 563 Q739 563 802 458 Q831 409 864 340 L934 189 L837 126 Q739 365 664 478 Q649 496 649 515 ZM27 388 Q49 455 161 449 Q169 473 203 491 Q198 511 207 556 Q224 608 276 607 L297 603 Q351 585 384 521 Q396 491 387 461 Q371 415 301 402 Q287 360 241 347 Q246 325 239 292 Q220 234 169 231 Q149 232 136 236 L130 238 Q56 263 25 348 Q22 375 27 388 ZM132 262 L144 258 Q198 246 210 284 L215 295 Q222 315 219 349 L201 355 Q192 329 154 335 Q124 345 131 385 Q136 400 157 407 L156 424 Q66 432 49 382 L48 378 Q36 340 94 285 Q115 268 132 262 ZM158 351 L163 349 Q181 347 186 361 L187 363 Q175 369 163 391 L164 392 L162 393 Q149 388 146 380 Q142 356 158 351 ZM213 366 Q249 354 282 394 L285 404 Q294 461 251 475 L250 477 L249 478 Q190 486 176 443 L174 438 Q159 393 213 366 ZM226 495 Q237 496 248 493 L251 491 Q266 518 289 510 L295 508 Q319 500 314 467 Q312 459 300 447 Q302 428 306 427 Q355 439 363 464 L365 472 Q382 520 309 571 L289 581 Q245 596 230 550 Q222 526 226 495 ZM266 485 Q277 481 290 464 L291 463 Q295 462 300 472 Q304 487 286 496 Q270 497 266 487 L266 485 Z" /><glyph glyph-name="uni5C4B" unicode="&#x5c4b;" d="M199 556 Q165 230 161 -82 L70 -82 Q70 221 122 755 Q126 805 172 811 Q202 808 214 776 Q454 814 716 815 L725 815 Q813 815 859 778 Q899 743 899 666 Q899 589 854 562 Q809 535 742 535 L727 535 Q407 535 199 556 ZM813 672 L813 679 Q813 713 794 726 Q770 738 728 738 L716 738 Q477 732 211 698 Q211 677 210 665 L206 637 Q432 612 681 612 L756 612 Q813 612 813 672 ZM858 340 Q848 228 624 226 Q633 205 633 179 L792 179 Q866 179 866 132 Q863 98 824 94 L628 94 L626 9 L884 11 Q938 11 942 -24 Q939 -57 902 -61 L568 -64 L372 -68 L234 -73 L234 0 L525 8 L525 50 L526 93 L301 90 L301 175 Q368 177 528 178 Q531 205 541 226 L526 226 Q414 226 344 255 Q289 281 289 331 Q289 354 304 396 L246 394 L246 468 Q416 482 880 486 Q936 484 937 453 Q935 423 908 418.5 Q881 414 833 414 Q856 367 858 340 ZM477 298 Q518 295 592 295 Q666 295 706 307 Q766 325 766 378 L749 413 L474 406 L394 402 Q381 380 381 362 Q381 344 387 330 Q399 302 477 298 Z" /><glyph glyph-name="uni6751" unicode="&#x6751;" d="M189 503 Q89 499 61 494 L61 584 Q115 593 186 596 L181 768 L181 771 Q181 790 193 800.5 Q205 811 226.5 811 Q248 811 257.5 805.5 Q267 800 271 778.5 Q275 757 276 714 Q277 671 280 597 L331 599 Q413 599 413 548 Q413 510 368 506 L284 506 L287 384 Q299 390 309 390 Q327 390 422 303 Q408 280 397 260 L373 217 L289 304 Q297 30 297 -82 L202 -82 L196 278 L101 196 L45 269 L118 336 Q156 372 193 393 L189 503 ZM450 616 Q508 624 750 628 L746 760 Q746 811 799 811 Q818 811 826.5 792.5 Q835 774 839 747 Q843 720 843.5 688.5 Q844 657 846 630 L872 630 Q952 630 954 582 Q951 544 908 539 L851 539 Q862 286 862 84 Q858 -85 711 -90 Q632 -90 569 -36 L565 44 Q613 6 686 3 Q766 3 766 128 L754 538 Q509 534 450 524 L450 616 ZM473 375 Q478 414 515 418 Q552 418 588 380 Q640 325 687 247 L610 187 Q589 217 568 242 L531 286 Q505 314 489 335 Q473 356 473 375 Z" /></font></defs></svg>
